client/public/img/game/shared/weapons/m1895.svg

<?xml version="1.0" encoding="UTF-8" standalone="no"?>
<svg
   width="100.67844"
   height="91.846436"
   viewBox="0 0 100.67844 91.846436"
   fill="none"
   version="1.1"
   id="svg30"
   sodipodi:docname="m1895.svg"
   inkscape:version="1.4.2 (1:1.4.2+202505120737+ebf0e940d0)"
   xmlns:inkscape="http://www.inkscape.org/namespaces/inkscape"
   xmlns:sodipodi="http://sodipodi.sourceforge.net/DTD/sodipodi-0.dtd"
   xmlns="http://www.w3.org/2000/svg"
   xmlns:svg="http://www.w3.org/2000/svg">
  <sodipodi:namedview
     id="namedview30"
     pagecolor="#505050"
     bordercolor="#ffffff"
     borderopacity="1"
     inkscape:showpageshadow="0"
     inkscape:pageopacity="0"
     inkscape:pagecheckerboard="1"
     inkscape:deskcolor="#505050"
     inkscape:zoom="2.7022727"
     inkscape:cx="21.463415"
     inkscape:cy="-6.1059714"
     inkscape:window-width="2560"
     inkscape:window-height="1368"
     inkscape:window-x="0"
     inkscape:window-y="0"
     inkscape:window-maximized="1"
     inkscape:current-layer="svg30" />
  <g
     clip-path="url(#clip0_1243_369)"
     id="g30"
     transform="matrix(0.99975004,0.26788222,-0.26788222,0.99975004,3.7746504,-27.001319)">
    <path
       d="M 53.9536,33.698 98.0133,8.26017 c 0.1119,-0.06463 0.1514,-0.20584 0.0881,-0.3154 L 95.9902,4.28801 C 95.9269,4.17845 95.7849,4.14203 95.673,4.20666 L 89.9382,7.51762 89.5763,8.04737 51.7522,29.8851 Z"
       fill="#514c49"
       stroke="#363330"
       stroke-width="1.83249"
       stroke-miterlimit="3.99393"
       stroke-linecap="round"
       id="path1" />
    <path
       fill-rule="evenodd"
       clip-rule="evenodd"
       d="m 40.1571,63.0452 c 1.8275,-0.3668 5.4461,-2.2547 5.4461,-2.2547 1.0092,-0.2903 1.593,-0.0811 1.91,0.3484 0.3246,0.4398 0.3033,1.102 0.1105,2.0994 -0.408,2.1117 0.5189,4.4579 2.1274,5.7611 1.934,1.5671 4.7676,1.7961 6.526,0.2022 0.3602,-0.3265 -0.0179,-0.8255 -0.4578,-0.6233 -0.8341,0.3832 -1.302,0.2634 -2.5844,-0.0539 -1.3538,-0.3349 -2.5968,-1.3179 -3.1672,-2.704 -0.5985,-1.4543 -0.6492,-2.8186 -0.0352,-3.9413 0.877,-1.6036 1.7156,-2.6865 2.9606,-3.8955 l -1.2726,-1.4699 -9.3238,2.8262 z"
       fill="#45413f"
       stroke="#353230"
       stroke-width="1.83249"
       stroke-miterlimit="3.99393"
       stroke-linecap="round"
       id="path2" />
    <path
       d="m 29.9737,63.5666 c -0.9293,-1.7145 -2.2302,-3.2113 -2.4373,-5.426 -2.0125,-1.0753 -3.6422,-0.8054 -5.4631,-1.2077 -1.8248,-0.1749 -2.5494,0.8689 -2.9419,2.3656 -0.3926,1.4967 -1.3653,2.7621 -2.0572,3.5636 -0.6918,0.8014 -0.9379,1.2168 -1.3101,1.9592 l -0.8716,-0.3593 1.7938,-3.4907 c 1.2866,-2.0733 1.1369,-3.6541 0.363,-5.0208 l -3.569,-1.8115 0.3244,-1.5333 1.3795,0.256 0.3901,-1.9754 0.4228,0.0866 3.7628,-5.672 0.871,0.2844 -2.6153,5.8011 17.1437,3.5441 z"
       fill="#5d5855"
       stroke="#363330"
       stroke-width="1.83249"
       stroke-miterlimit="3.99393"
       stroke-linecap="round"
       id="path3" />
    <path
       fill-rule="evenodd"
       clip-rule="evenodd"
       d="M 21.7169,74.4806 C 21.7318,71.0017 20.749,67.8671 19.773,64.8716 30.0623,60.2773 33.3588,58.4683 31.6741,50.0015 l -4.5842,-9.6648 1.684,-0.9636 c 0.8534,0.1891 2.3448,-0.672 2.8954,-0.9899 0.5506,-0.3179 1.0022,-0.5591 1.4918,-0.7688 L 51.176,27.3543 c 2.922,-1.4974 6.4299,-3.0895 8.0921,-2.6503 l 5.6357,9.7613 c -2.3014,1.4028 -4.2616,3.0694 -2.6615,8.2522 0.0851,0.5459 0.4094,1.0497 0.7337,1.5535 0.6746,1.048 1.3492,2.0959 -0.1298,3.5231 l -9.4426,6.6934 c -4.6967,3.251 -5.7313,4.118 -6.9668,7.0031 -4.6474,3.3821 -7.6972,8.124 -9.4332,13.1682 -7.6872,-6.9366 -11.833,-3.3382 -15.175,-0.1769 z M 61.1409,46.1488 50.9938,28.5734 33.8096,38.4638 44.3752,56.7641 Z"
       fill="#79726d"
       id="path4" />
    <path
       d="M 35.575,73.4531 C 34.3313,72.486 33.187,71.8087 32.1277,71.3654 l 6.7,-17.0859 3.7281,1.3718 z"
       fill="#6e6863"
       id="path5" />
    <path
       d="M 40.1155,49.3828 57.2876,39.4685 54.7268,35.033 37.5547,44.9473 Z"
       fill="#484442"
       id="path6" />
    <path
       d="M 54.1855,34.0915 53.3588,34.0398 51.1575,30.2269 51.526,29.4851 Z"
       fill="#45413f"
       id="path7" />
    <path
       fill-rule="evenodd"
       clip-rule="evenodd"
       d="m 61.9694,29.3718 2.3969,4.1519 10.4314,-6.0225 -2.3976,-4.1527 z"
       fill="#5d5855"
       stroke="#363330"
       stroke-width="1.83249"
       stroke-miterlimit="3.99393"
       stroke-linecap="round"
       id="path8" />
    <path
       fill-rule="evenodd"
       clip-rule="evenodd"
       d="m 61.9684,29.3701 -2.6089,-4.5183 10.4314,-6.0226 2.6092,4.5193 z"
       fill="#6b6561"
       stroke="#363330"
       stroke-width="1.83249"
       stroke-miterlimit="3.99393"
       stroke-linecap="round"
       id="path9" />
    <path
       d="M 90.264,7.32894 95.4681,4.32436 C 94.7274,3.10205 93.0982,2.71539 91.8275,3.44859 l 0.4285,0.74226 -2.3608,2.49931 z"
       fill="#433f3d"
       stroke="#363330"
       stroke-width="1.83249"
       stroke-miterlimit="3.99393"
       stroke-linecap="round"
       id="path10" />
    <path
       d="m 79.6994,22.4081 0.8302,1.4379 -5.8831,3.3965 -0.8301,-1.4378 z"
       fill="#534e4b"
       stroke="#363330"
       stroke-width="1.83249"
       stroke-miterlimit="3.99393"
       stroke-linecap="round"
       id="path11" />
    <path
       fill-rule="evenodd"
       clip-rule="evenodd"
       d="M 44.1095,55.3066 47.5343,53.254 47.2846,52.8083 59.8455,45.3595 50.8534,29.7006 38.1709,37.0228 37.844,36.4566 34.3811,38.4559 Z"
       fill="#585350"
       id="path12" />
    <path
       d="M 47.2817,52.8119 38.168,37.0264 50.8505,29.7041 59.9643,45.4896 Z"
       fill="#5d5855"
       stroke="#363330"
       stroke-width="1.83249"
       stroke-miterlimit="3.99393"
       stroke-linecap="round"
       id="path13" />
    <path
       fill-rule="evenodd"
       clip-rule="evenodd"
       d="m 35.3477,37.8984 1.6224,-0.9367 1.3903,2.4082 c -0.3096,0.6918 -0.8692,1.0146 -1.6224,0.9367 z"
       fill="#484442"
       id="path14" />
    <path
       fill-rule="evenodd"
       clip-rule="evenodd"
       d="m 42.7715,50.7539 1.6224,-0.9367 1.4165,2.4534 c -0.3097,0.6918 -0.8693,1.0147 -1.6225,0.9367 z"
       fill="#484442"
       id="path15" />
    <path
       fill-rule="evenodd"
       clip-rule="evenodd"
       d="m 39.0742,44.3506 1.6224,-0.9367 2.0427,3.538 c -0.3097,0.6918 -0.8692,1.0147 -1.6224,0.9367 z"
       fill="#484442"
       id="path16" />
    <path
       fill-rule="evenodd"
       clip-rule="evenodd"
       d="m 45.9436,38.5859 3.4153,-1.9718 c 1.8461,-1.0659 3.6486,-1.3761 4.0415,-0.6956 0.3929,0.6806 -0.777,2.0865 -2.6231,3.1523 l -3.4153,1.9718 c -1.8461,1.0658 -3.6486,1.376 -4.0415,0.6955 -0.3929,-0.6805 0.777,-2.0864 2.6231,-3.1522 z"
       fill="#484442"
       id="path17" />
    <path
       d="m 53.4702,43.7352 -3.4153,1.9718 c -1.8403,1.0625 -3.0954,2.3341 -2.8033,2.8401 0.2922,0.506 2.0209,0.0548 3.8613,-1.0077 l 3.4153,-1.9718 c 1.8403,-1.0625 3.0954,-2.3341 2.8033,-2.8401 -0.2922,-0.506 -2.0209,-0.0549 -3.8613,1.0077 z"
       fill="#484442"
       id="path18" />
    <path
       fill-rule="evenodd"
       clip-rule="evenodd"
       d="m 50.2122,30.393 c 0.6953,-0.4014 -0.777,2.0865 -2.6231,3.1523 l -3.4152,1.9718 c -1.8461,1.0658 -4.7368,1.097 -4.0415,0.6955 z"
       fill="#484442"
       id="path19" />
    <path
       d="m 79.5396,22.1322 1.1502,1.9921 3.2705,-1.7471 c 0.0343,-0.5227 -0.1075,-0.9281 -0.3414,-1.2721 -0.181,-0.3745 -0.4611,-0.7 -0.9309,-0.9317 z"
       fill="#484442"
       stroke="#363330"
       stroke-width="1.83249"
       stroke-miterlimit="3.99393"
       stroke-linecap="round"
       id="path20" />
    <path
       d="M 54.8798,53.4402 62.85,47.791 c 0,0 0.6755,0.4014 0.6685,0.7008 -0.0078,0.33 -0.101,0.6189 -0.2028,0.9348 -0.2022,0.6272 -0.0928,1.0799 0.2369,2.4519 0.183,0.7611 1.0347,1.6215 1.572,2.4802 0.3844,0.6142 0.9483,1.3945 1.2064,2.332 0.553,2.009 0.7095,3.9688 -0.1626,6.0925 -0.5902,1.4373 -2.0648,3.7936 -3.9082,5.6055 -1.6848,1.6561 -4.1844,3.4607 -5.9361,4.3085 -2.4899,1.2052 -7.2611,2.6209 -11.7778,-0.6807 -2.5396,-1.8564 -4.2146,-2.1746 -6.1697,-0.6967 1.7024,-3.5332 4.1342,-6.7808 7.4047,-9.3352 -2.4,10.8788 3.6725,10.3943 7.8989,9.4932 2.1126,-0.4505 5.8018,-2.8832 8.0922,-5.7077 2.2903,-2.8245 2.965,-5.5719 2.4241,-8.1814 -0.8132,-3.9229 -4.2654,-5.7671 -8.4089,-3.4494 z"
       fill="#6b6561"
       id="path21" />
    <path
       fill-rule="evenodd"
       clip-rule="evenodd"
       d="M 44.1095,55.3066 47.5343,53.254 47.2846,52.8083 59.8455,45.3595 50.8534,29.7006 38.1709,37.0228 37.844,36.4566 34.3811,38.4559 Z"
       stroke="#363330"
       stroke-width="1.83249"
       stroke-miterlimit="3.99393"
       stroke-linecap="round"
       id="path22" />
    <path
       d="m 37.0236,105.208 c -1.0129,-0.292 -2.4416,-2.093 -2.4416,-2.093 l 3.6353,-1.61 c 0,0 0.3349,1.993 -0.0875,3.057 l 1.1651,2.017 c 0.1731,0.3 0.0651,0.687 -0.2413,0.864 -0.3064,0.177 -0.6952,0.077 -0.8683,-0.223 z"
       fill="#403d3a"
       stroke="#363331"
       stroke-width="1.83249"
       stroke-miterlimit="3.99393"
       id="path23" />
    <path
       d="m 19.7729,64.8716 c 0.9761,2.9958 1.959,6.1302 1.9442,9.6093 l 0.1113,8e-4 c 3.3421,-3.1611 7.4879,-6.7594 15.175,0.1768 0.3898,-1.1332 0.8438,-2.2446 1.3695,-3.3354 1.955,-1.4779 3.6301,-1.1598 6.1698,0.6967 4.5168,3.302 9.2876,1.8856 11.7776,0.6805 1.752,-0.8473 4.2515,-2.652 5.9361,-4.3085 1.8437,-1.8115 3.3181,-4.1681 3.9083,-5.6051 0.8723,-2.1236 0.716,-4.0833 0.1627,-6.0926 -0.219,-0.7952 -0.6581,-1.4777 -1.0213,-2.0419 l -0.1849,-0.29 C 64.9363,54.067 64.7149,53.7723 64.4961,53.4812 L 64.4929,53.4769 64.4908,53.4741 C 64.0742,52.9195 63.6685,52.3794 63.5491,51.882 l -9e-4,-0.0038 c -0.3276,-1.3635 -0.4381,-1.823 -0.2362,-2.4484 0.1022,-0.3153 0.1952,-0.6045 0.2029,-0.9344 0.0026,-0.1038 -0.0771,-0.22 -0.1825,-0.3276 -0.1983,-0.2027 -0.4861,-0.3734 -0.4861,-0.3734 1.4789,-1.4272 0.8042,-2.4756 0.1299,-3.5233 l -2e-4,-3e-4 -2e-4,-3e-4 c -0.3244,-0.5038 -0.6483,-1.0068 -0.7333,-1.5527 -1.6004,-5.1832 0.3598,-6.8501 2.6615,-8.2524 l -5.6357,-9.7613 c -1.6624,-0.4392 -5.1702,1.1531 -8.0923,2.6501 L 33.1613,37.6145 c -0.4898,0.2094 -0.9415,0.4506 -1.4922,0.7685 -0.5504,0.3178 -2.0419,1.1789 -2.8953,0.9897 l -1.6839,0.9639 4.5843,9.6648 c 1.6845,8.4667 -1.6118,10.2758 -11.9013,14.8702 z"
       stroke="#363330"
       stroke-width="3.66498"
       id="path24" />
    <path
       d="m 45.7805,61.9857 c 0.2782,-0.2216 0.3685,-0.2861 0.659,-0.4972 1.2351,-2.8859 2.2697,-3.7529 6.9663,-7.0038 l 1.4729,-1.0436 0.908,0.6991 c 4.1433,-2.3178 7.5954,-0.4736 8.4086,3.449 0.541,2.6096 -0.1338,5.3569 -2.4242,8.1815 -2.2902,2.8245 -5.9795,5.2573 -8.0918,5.7081 -4.2267,0.9008 -10.2989,1.3856 -7.8988,-9.4931 z"
       stroke="#363330"
       stroke-width="1.83249"
       id="path25" />
    <path
       fill-rule="evenodd"
       clip-rule="evenodd"
       d="m 29.2467,103.995 c 5.3787,-0.041 9.8439,-1.89 13.1467,-6.0397 -5.1445,-6.8689 -8.4207,-14.8296 -5.3856,-23.2969 -7.8167,-7.0549 -11.9721,-3.2177 -15.3436,-0.0213 -1.144,11.2112 2.6628,20.5007 7.5825,29.3579 z"
       fill="#66381a"
       stroke="#512d15"
       stroke-width="3.66498"
       stroke-miterlimit="3.99393"
       stroke-linecap="round"
       id="path26" />
    <path
       fill-rule="evenodd"
       clip-rule="evenodd"
       d="m 30.212,91.8641 2.731,-5.0691 -4.4343,-2.9409 -2.649,4.8589 z"
       fill="#5e3417"
       id="path27" />
    <path
       d="m 29.7951,88.4323 c 0.3485,-0.2012 0.4714,-0.6408 0.2745,-0.9818 -0.1969,-0.3411 -0.639,-0.4544 -0.9875,-0.2532 -0.3485,0.2011 -0.4713,0.6407 -0.2744,0.9817 0.1969,0.3411 0.639,0.4545 0.9874,0.2533 z"
       fill="#88593a"
       id="path28" />
    <path
       d="M 61.14,46.1478 50.9928,28.5724 33.8086,38.4629 44.3743,56.7632 Z"
       stroke="#363330"
       stroke-width="1.83249"
       stroke-miterlimit="3.99393"
       stroke-linecap="round"
       id="path29" />
    <path
       fill-rule="evenodd"
       clip-rule="evenodd"
       d="m 40.5282,57.4952 -0.8857,0.5096 -2.5622,-4.1544 c 0.8827,-1.4586 1.2318,-2.7905 0.3266,-4.3324 l -4.6551,-8.0628 3.8595,-2.2283 0.8541,1.4793 -2.2516,1.345 6.5007,11.6118 1.0503,-0.4436 0.2186,0.3624 -0.355,0.223 0.8996,1.5694 -2.799,1.616 z"
       fill="#5d5855"
       stroke="#363330"
       stroke-width="1.83249"
       stroke-miterlimit="3.99393"
       stroke-linecap="round"
       id="path30" />
  </g>
  <defs
     id="defs30">
    <clipPath
       id="clip0_1243_369">
      <rect
         width="110"
         height="110"
         fill="#ffffff"
         id="rect30"
         x="0"
         y="0" />
    </clipPath>
  </defs>
</svg>

<svg width="110" height="110" viewBox="0 0 110 110" fill="none" xmlns="http://www.w3.org/2000/svg">
<g clip-path="url(#clip0_1243_369)">
<path d="M53.9536 33.698L98.0133 8.26017C98.1252 8.19554 98.1647 8.05433 98.1014 7.94477L95.9902 4.28801C95.9269 4.17845 95.7849 4.14203 95.673 4.20666L89.9382 7.51762L89.5763 8.04737L51.7522 29.8851L53.9536 33.698Z" fill="#514C49" stroke="#363330" stroke-width="1.83249" stroke-miterlimit="3.99393" stroke-linecap="round"/>
<path fill-rule="evenodd" clip-rule="evenodd" d="M40.1571 63.0452C41.9846 62.6784 45.6032 60.7905 45.6032 60.7905C46.6124 60.5002 47.1962 60.7094 47.5132 61.1389C47.8378 61.5787 47.8165 62.2409 47.6237 63.2383C47.2157 65.35 48.1426 67.6962 49.7511 68.9994C51.6851 70.5665 54.5187 70.7955 56.2771 69.2016C56.6373 68.8751 56.2592 68.3761 55.8193 68.5783C54.9852 68.9615 54.5173 68.8417 53.2349 68.5244C51.8811 68.1895 50.6381 67.2065 50.0677 65.8204C49.4692 64.3661 49.4185 63.0018 50.0325 61.8791C50.9095 60.2755 51.7481 59.1926 52.9931 57.9836L51.7205 56.5137L42.3967 59.3399L40.1571 63.0452Z" fill="#45413F" stroke="#353230" stroke-width="1.83249" stroke-miterlimit="3.99393" stroke-linecap="round"/>
<path d="M29.9737 63.5666C29.0444 61.8521 27.7435 60.3553 27.5364 58.1406C25.5239 57.0653 23.8942 57.3352 22.0733 56.9329C20.2485 56.758 19.5239 57.8018 19.1314 59.2985C18.7388 60.7952 17.7661 62.0606 17.0742 62.8621C16.3824 63.6635 16.1363 64.0789 15.7641 64.8213L14.8925 64.462L16.6863 60.9713C17.9729 58.898 17.8232 57.3172 17.0493 55.9505L13.4803 54.139L13.8047 52.6057L15.1842 52.8617L15.5743 50.8863L15.9971 50.9729L19.7599 45.3009L20.6309 45.5853L18.0156 51.3864L35.1593 54.9305L29.9737 63.5666Z" fill="#5D5855" stroke="#363330" stroke-width="1.83249" stroke-miterlimit="3.99393" stroke-linecap="round"/>
<path fill-rule="evenodd" clip-rule="evenodd" d="M21.7169 74.4806C21.7318 71.0017 20.749 67.8671 19.773 64.8716C30.0623 60.2773 33.3588 58.4683 31.6741 50.0015L27.0899 40.3367L28.7739 39.3731C29.6273 39.5622 31.1187 38.7011 31.6693 38.3832C32.2199 38.0653 32.6715 37.8241 33.1611 37.6144L51.176 27.3543C54.098 25.8569 57.6059 24.2648 59.2681 24.704L64.9038 34.4653C62.6024 35.8681 60.6422 37.5347 62.2423 42.7175C62.3274 43.2634 62.6517 43.7672 62.976 44.271C63.6506 45.319 64.3252 46.3669 62.8462 47.7941L53.4036 54.4875C48.7069 57.7385 47.6723 58.6055 46.4368 61.4906C41.7894 64.8727 38.7396 69.6146 37.0036 74.6588C29.3164 67.7222 25.1706 71.3206 21.8286 74.4819L21.7169 74.4806ZM61.1409 46.1488L50.9938 28.5734L33.8096 38.4638L44.3752 56.7641L61.1409 46.1488Z" fill="#79726D"/>
<path d="M35.575 73.4531C34.3313 72.486 33.187 71.8087 32.1277 71.3654L38.8277 54.2795L42.5558 55.6513L35.575 73.4531Z" fill="#6E6863"/>
<path d="M40.1155 49.3828L57.2876 39.4685L54.7268 35.033L37.5547 44.9473L40.1155 49.3828Z" fill="#484442"/>
<path d="M54.1855 34.0915L53.3588 34.0398L51.1575 30.2269L51.526 29.4851L54.1855 34.0915Z" fill="#45413F"/>
<path fill-rule="evenodd" clip-rule="evenodd" d="M61.9694 29.3718L64.3663 33.5237L74.7977 27.5012L72.4001 23.3485L61.9694 29.3718Z" fill="#5D5855" stroke="#363330" stroke-width="1.83249" stroke-miterlimit="3.99393" stroke-linecap="round"/>
<path fill-rule="evenodd" clip-rule="evenodd" d="M61.9684 29.3701L59.3595 24.8518L69.7909 18.8292L72.4001 23.3485L61.9684 29.3701Z" fill="#6B6561" stroke="#363330" stroke-width="1.83249" stroke-miterlimit="3.99393" stroke-linecap="round"/>
<path d="M90.264 7.32894L95.4681 4.32436C94.7274 3.10205 93.0982 2.71539 91.8275 3.44859L92.256 4.19085L89.8952 6.69016L90.264 7.32894Z" fill="#433F3D" stroke="#363330" stroke-width="1.83249" stroke-miterlimit="3.99393" stroke-linecap="round"/>
<path d="M79.6994 22.4081L80.5296 23.846L74.6465 27.2425L73.8164 25.8047L79.6994 22.4081Z" fill="#534E4B" stroke="#363330" stroke-width="1.83249" stroke-miterlimit="3.99393" stroke-linecap="round"/>
<path fill-rule="evenodd" clip-rule="evenodd" d="M44.1095 55.3066L47.5343 53.254L47.2846 52.8083L59.8455 45.3595L50.8534 29.7006L38.1709 37.0228L37.844 36.4566L34.3811 38.4559L44.1095 55.3066Z" fill="#585350"/>
<path d="M47.2817 52.8119L38.168 37.0264L50.8505 29.7041L59.9643 45.4896L47.2817 52.8119Z" fill="#5D5855" stroke="#363330" stroke-width="1.83249" stroke-miterlimit="3.99393" stroke-linecap="round"/>
<path fill-rule="evenodd" clip-rule="evenodd" d="M35.3477 37.8984L36.9701 36.9617L38.3604 39.3699C38.0508 40.0617 37.4912 40.3845 36.738 40.3066L35.3477 37.8984Z" fill="#484442"/>
<path fill-rule="evenodd" clip-rule="evenodd" d="M42.7715 50.7539L44.3939 49.8172L45.8104 52.2706C45.5007 52.9624 44.9411 53.2853 44.1879 53.2073L42.7715 50.7539Z" fill="#484442"/>
<path fill-rule="evenodd" clip-rule="evenodd" d="M39.0742 44.3506L40.6966 43.4139L42.7393 46.9519C42.4296 47.6437 41.8701 47.9666 41.1169 47.8886L39.0742 44.3506Z" fill="#484442"/>
<path fill-rule="evenodd" clip-rule="evenodd" d="M45.9436 38.5859L49.3589 36.6141C51.205 35.5482 53.0075 35.238 53.4004 35.9185C53.7933 36.5991 52.6234 38.005 50.7773 39.0708L47.362 41.0426C45.5159 42.1084 43.7134 42.4186 43.3205 41.7381C42.9276 41.0576 44.0975 39.6517 45.9436 38.5859Z" fill="#484442"/>
<path d="M53.4702 43.7352L50.0549 45.707C48.2146 46.7695 46.9595 48.0411 47.2516 48.5471C47.5438 49.0531 49.2725 48.6019 51.1129 47.5394L54.5282 45.5676C56.3685 44.5051 57.6236 43.2335 57.3315 42.7275C57.0393 42.2215 55.3106 42.6726 53.4702 43.7352Z" fill="#484442"/>
<path fill-rule="evenodd" clip-rule="evenodd" d="M50.2122 30.393C50.9075 29.9916 49.4352 32.4795 47.5891 33.5453L44.1739 35.5171C42.3278 36.5829 39.4371 36.6141 40.1324 36.2126L50.2122 30.393Z" fill="#484442"/>
<path d="M79.5396 22.1322L80.6898 24.1243L83.9603 22.3772C83.9946 21.8545 83.8528 21.4491 83.6189 21.1051C83.4379 20.7306 83.1578 20.4051 82.688 20.1734L79.5396 22.1322Z" fill="#484442" stroke="#363330" stroke-width="1.83249" stroke-miterlimit="3.99393" stroke-linecap="round"/>
<path d="M54.8798 53.4402L62.85 47.791C62.85 47.791 63.5255 48.1924 63.5185 48.4918C63.5107 48.8218 63.4175 49.1107 63.3157 49.4266C63.1135 50.0538 63.2229 50.5065 63.5526 51.8785C63.7356 52.6396 64.5873 53.5 65.1246 54.3587C65.509 54.9729 66.0729 55.7532 66.331 56.6907C66.884 58.6997 67.0405 60.6595 66.1684 62.7832C65.5782 64.2205 64.1036 66.5768 62.2602 68.3887C60.5754 70.0448 58.0758 71.8494 56.3241 72.6972C53.8342 73.9024 49.063 75.3181 44.5463 72.0165C42.0067 70.1601 40.3317 69.8419 38.3766 71.3198C40.079 67.7866 42.5108 64.539 45.7813 61.9846C43.3813 72.8634 49.4538 72.3789 53.6802 71.4778C55.7928 71.0273 59.482 68.5946 61.7724 65.7701C64.0627 62.9456 64.7374 60.1982 64.1965 57.5887C63.3833 53.6658 59.9311 51.8216 55.7876 54.1393L54.8798 53.4402Z" fill="#6B6561"/>
<path fill-rule="evenodd" clip-rule="evenodd" d="M44.1095 55.3066L47.5343 53.254L47.2846 52.8083L59.8455 45.3595L50.8534 29.7006L38.1709 37.0228L37.844 36.4566L34.3811 38.4559L44.1095 55.3066Z" stroke="#363330" stroke-width="1.83249" stroke-miterlimit="3.99393" stroke-linecap="round"/>
<path d="M37.0236 105.208C36.0107 104.916 34.582 103.115 34.582 103.115L38.2173 101.505C38.2173 101.505 38.5522 103.498 38.1298 104.562L39.2949 106.579C39.468 106.879 39.36 107.266 39.0536 107.443C38.7472 107.62 38.3584 107.52 38.1853 107.22L37.0236 105.208Z" fill="#403D3A" stroke="#363331" stroke-width="1.83249" stroke-miterlimit="3.99393"/>
<path d="M19.7729 64.8716C20.749 67.8674 21.7319 71.0018 21.7171 74.4809L21.8284 74.4817C25.1705 71.3206 29.3163 67.7223 37.0034 74.6585C37.3932 73.5253 37.8472 72.4139 38.3729 71.3231C40.3279 69.8452 42.003 70.1633 44.5427 72.0198C49.0595 75.3218 53.8303 73.9054 56.3203 72.7003C58.0723 71.853 60.5718 70.0483 62.2564 68.3918C64.1001 66.5803 65.5745 64.2237 66.1647 62.7867C67.037 60.6631 66.8807 58.7034 66.3274 56.6941C66.1084 55.8989 65.6693 55.2164 65.3061 54.6522L65.1212 54.3622C64.9363 54.067 64.7149 53.7723 64.4961 53.4812L64.4929 53.4769L64.4908 53.4741C64.0742 52.9195 63.6685 52.3794 63.5491 51.882L63.5482 51.8782C63.2206 50.5147 63.1101 50.0552 63.312 49.4298C63.4142 49.1145 63.5072 48.8253 63.5149 48.4954C63.5175 48.3916 63.4378 48.2754 63.3324 48.1678C63.1341 47.9651 62.8463 47.7944 62.8463 47.7944C64.3252 46.3672 63.6505 45.3188 62.9762 44.2711L62.976 44.2708L62.9758 44.2705C62.6514 43.7667 62.3275 43.2637 62.2425 42.7178C60.6421 37.5346 62.6023 35.8677 64.904 34.4654L59.2683 24.7041C57.6059 24.2649 54.0981 25.8572 51.176 27.3542L33.1613 37.6145C32.6715 37.8239 32.2198 38.0651 31.6691 38.383C31.1187 38.7008 29.6272 39.5619 28.7738 39.3727L27.0899 40.3366L31.6742 50.0014C33.3587 58.4681 30.0624 60.2772 19.7729 64.8716Z" stroke="#363330" stroke-width="3.66498"/>
<path d="M45.7805 61.9857C46.0587 61.7641 46.149 61.6996 46.4395 61.4885C47.6746 58.6026 48.7092 57.7356 53.4058 54.4847L54.8787 53.4411L55.7867 54.1402C59.93 51.8224 63.3821 53.6666 64.1953 57.5892C64.7363 60.1988 64.0615 62.9461 61.7711 65.7707C59.4809 68.5952 55.7916 71.028 53.6793 71.4788C49.4526 72.3796 43.3804 72.8644 45.7805 61.9857Z" stroke="#363330" stroke-width="1.83249"/>
<path fill-rule="evenodd" clip-rule="evenodd" d="M29.2467 103.995C34.6254 103.954 39.0906 102.105 42.3934 97.9553C37.2489 91.0864 33.9727 83.1257 37.0078 74.6584C29.1911 67.6035 25.0357 71.4407 21.6642 74.6371C20.5202 85.8483 24.327 95.1378 29.2467 103.995Z" fill="#66381A" stroke="#512D15" stroke-width="3.66498" stroke-miterlimit="3.99393" stroke-linecap="round"/>
<path fill-rule="evenodd" clip-rule="evenodd" d="M30.212 91.8641L32.943 86.795L28.5087 83.8541L25.8597 88.713L30.212 91.8641Z" fill="#5E3417"/>
<path d="M29.7951 88.4323C30.1436 88.2311 30.2665 87.7915 30.0696 87.4505C29.8727 87.1094 29.4306 86.9961 29.0821 87.1973C28.7336 87.3984 28.6108 87.838 28.8077 88.179C29.0046 88.5201 29.4467 88.6335 29.7951 88.4323Z" fill="#88593A"/>
<path d="M61.14 46.1478L50.9928 28.5724L33.8086 38.4629L44.3743 56.7632L61.14 46.1478Z" stroke="#363330" stroke-width="1.83249" stroke-miterlimit="3.99393" stroke-linecap="round"/>
<path fill-rule="evenodd" clip-rule="evenodd" d="M40.5282 57.4952L39.6425 58.0048L37.0803 53.8504C37.963 52.3918 38.3121 51.0599 37.4069 49.518L32.7518 41.4552L36.6113 39.2269L37.4654 40.7062L35.2138 42.0512L41.7145 53.663L42.7648 53.2194L42.9834 53.5818L42.6284 53.8048L43.528 55.3742L40.729 56.9902L40.5282 57.4952Z" fill="#5D5855" stroke="#363330" stroke-width="1.83249" stroke-miterlimit="3.99393" stroke-linecap="round"/>
</g>
<defs>
<clipPath id="clip0_1243_369">
<rect width="110" height="110" fill="white"/>
</clipPath>
</defs>
</svg>
